X: 27917
T: Mountain Road, The
R: reel
M: 4/4
K: Gmajor
|B2dB eBdB|B2dB ABGA|B2dB eBdB|cABG AGEG|
B2dB eBdB|B2dB ABGA|Bd~d2 edBe|dega ~b3a||
~g3e d2Bd|gfga ~b3a|~g3e d2Bd|cABG AGEf|
~g3e d2Bd|gfga ~b3a|gabg edBd|c2Bc AGEA||

